X:32
T:The Shan Van Vocht Hornpipe
C:Trad/Anon
B:Allan's Irish Fiddler #90 pp22
B:pub. Mozart Allen, Glasgow
Z:VINCE BRENNAN Dec. 2002 (http://www.sosyourmom.com)
I:abc2nwc
M:4/4
L:1/8
F:http://www.sosyourmom.com/Allans/ABCtxt/090-ShanVanVocht.txt
K:C
(e3/2d/2)|c3/2A/2 B3/2G/2 A2B3/2A/2|G3/2E/2 D3/2E/2 G2B3/2d/2|e3/2g/2 ^f3/2a/2 g3/2e/2 d3/2c/2|.B2.G2.G2(e3/2d/2)|
c3/2A/2 B3/2G/2 A3/2c/2 B3/2A/2|G3/2E/2 D3/2E/2 G3/2A/2 B3/2d/2| (3(e^fg) f3/2a/2 g3/2e/2 d3/2B/2|.A2.A2.A2:|
|: (3(e^fg)|a3/2^g/2 a3/2b/2 a3/2=g/2 e3/2c/2|A2A2A3/2d/2 e3/2^f/2|g3/2^f/2 g3/2a/2 g3/2e/2 d3/2B/2|G2G2G3/2A/2 B3/2A/2|
A3/2G/2 A3/2B/2 A3/2c/2 B3/2A/2|G3/2^F/2 G3/2A/2 G3/2A/2 B3/2d/2| (3(efg) f3/2a/2 g3/2e/2 d3/2B/2|.A2.A2.A2:|
